billpay/airlines.svg

<svg width="48" height="48" viewBox="0 0 48 48" fill="none" xmlns="http://www.w3.org/2000/svg">
<mask id="mask0_3027_21304" style="mask-type:alpha" maskUnits="userSpaceOnUse" x="0" y="0" width="48" height="48">
<path d="M0 12C0 5.37258 5.37258 0 12 0H36C42.6274 0 48 5.37258 48 12V48H0V12Z" fill="#D9D9D9"/>
</mask>
<g mask="url(#mask0_3027_21304)">
<path d="M13.6996 34.2996L7.29961 30.7996L9.39961 28.6996L14.3996 29.3996L22.1996 21.5996L6.59961 13.0996L9.39961 10.2996L28.4996 15.1996L36.3496 7.44961C36.9163 6.88294 37.6246 6.59961 38.4746 6.59961C39.3246 6.59961 40.0329 6.88294 40.5996 7.44961C41.1663 8.01628 41.4496 8.72461 41.4496 9.57461C41.4496 10.4246 41.1663 11.1329 40.5996 11.6996L32.7996 19.4996L37.6996 38.5996L34.8996 41.3996L26.3996 25.7996L18.5996 33.5996L19.2996 38.5996L17.1996 40.6996L13.6996 34.2996Z" fill="white"/>
</g>
</svg>

<svg width="48" height="48" viewBox="0 0 48 48" fill="none" xmlns="http://www.w3.org/2000/svg"><path d="m13.7 34.3-6.4-3.5 2.1-2.1 5 .7 7.8-7.8-15.6-8.5 2.8-2.8 19.1 4.9 7.85-7.75q.85-.85 2.125-.85t2.125.85.85 2.125-.85 2.125l-7.8 7.8 4.9 19.1-2.8 2.8-8.5-15.6-7.8 7.8.7 5-2.1 2.1z" fill="#fff"/></svg>
